X: 124
T:Mulhaire`s Reel
T:Mulhaire`s #9
M:4/4
L:1/8
C:Martin Mulhaire
K:D
F2 AF DFAF |G2 BG DGBG | c2 ec Acec | dcde fdAG |
F2 AF DFAF | GB ~B2 dB ~B2 | ABcd efge | fddc dBAG |
F2 AF DFAF |G2 BG DGBG| =c^ce=c ^cece| dcde fdAG|
F AF DFAF |GB ~B2 dB ~B2 | ABcd efge | fddc dBAG ||
ABcd efge | fddc defg |a2 fd adfd | adfd edBd | e2 ef ~g3 a 
| be e2 bege |a2 fd  adfd | adfd edBA | F2 AF G2 Bd | AGFE D4 :|
